svg/analytics.svg

<?xml version="1.0" encoding="utf-8"?>
<!-- Generator: Adobe Illustrator 19.2.0, SVG Export Plug-In . SVG Version: 6.00 Build 0)  -->
<svg version="1.1" id="Layer_1" xmlns="http://www.w3.org/2000/svg" xmlns:xlink="http://www.w3.org/1999/xlink" x="0px" y="0px"
	 viewBox="0 0 20 20" style="enable-background:new 0 0 20 20;" xml:space="preserve">
<path d="M18,17V3c0-0.6-0.4-1-1-1H3C2.4,2,2,2.4,2,3v14c0,0.6,0.4,1,1,1h14C17.5,18,18,17.5,18,17z M16,5H4V4h12V5z M7,7v3h3
	c0,0.8-0.3,1.5-0.9,2.1C8.5,12.7,7.8,13,7,13s-1.5-0.3-2.1-0.9C4.3,11.5,4,10.8,4,10s0.3-1.5,0.9-2.1S6.2,7,7,7z M8,9V7
	c0.5,0,1,0.2,1.4,0.6S10,8.5,10,9H8z M16,8h-4V7h4V8z M16,11h-4V9h4V11z M16,13h-4v-1h4V13z M16,16H4v-1h12V16z"/>
</svg>

<?xml version="1.0" encoding="utf-8"?>
<!-- Generated by IcoMoon.io -->
<!DOCTYPE svg PUBLIC "-//W3C//DTD SVG 1.1//EN" "http://www.w3.org/Graphics/SVG/1.1/DTD/svg11.dtd">
<svg version="1.1" xmlns="http://www.w3.org/2000/svg" xmlns:xlink="http://www.w3.org/1999/xlink" width="20" height="20" viewBox="0 0 20 20">
<path d="M18 18v-16h-16v16h16zM16 5h-12v-1h12v1zM7 7v3h3c0 1.66-1.34 3-3 3s-3-1.34-3-3 1.34-3 3-3zM8 9v-2c1.1 0 2 0.9 2 2h-2zM16 8h-4v-1h4v1zM16 11h-4v-2h4v2zM16 13h-4v-1h4v1zM16 16h-12v-1h12v1z"></path>
</svg>
